X:1
T:Title
L:1/8
Q:1/4=120
M:4/4
K:G
V:1 treble nm="Church Organ, Staff"
V:1
 G2 A2 B3 A- | A B2 d- d/ z/ e3- | e d3- d4- | d d2 e- e/ z/ c3- | c c2 d- d/ z/ B3- | %5
w: By~17th~Century~Melody~by~J.~G.~Ebeling * * *|||||
 B B2 d- d/ z/ c2 B- | B A3- A/ z/ G3- | G d3- d/ z/ c3- | c B3- B2- B/ z/ A- | A G2 F- F/ z/ E3- | %10
w: |||||
 E D3- D4- | D d2 e- e/ z/ c3- | c c2 d- d/ z/ B3- | B B2 A- A/ z/ c2 B- | B A3- A/ z/ .G3 |] %15
w: |||||

